assets/Snake/Flat/snake_flat.svg

<svg width="32" height="32" viewBox="0 0 32 32" fill="none" xmlns="http://www.w3.org/2000/svg">
<path d="M19.58 5.99994C18.18 5.99994 16.83 5.38994 15.94 4.29994C15.91 4.25994 15.88 4.22994 15.85 4.18994C15.68 3.96994 15.36 3.92994 15.14 4.10994C14.93 4.27994 14.9 4.59994 15.07 4.81994C15.42 5.26994 15.83 5.66994 16.28 5.99994H15.47C15.2 5.99994 14.97 6.19994 14.95 6.46994C14.94 6.75994 15.17 6.99994 15.46 6.99994H21.46V5.99994H19.58Z" fill="#F8312F"/>
<path d="M29.79 28.39C28.14 26.24 25.59 24.98 22.88 24.98H17.64C14.42 24.98 11.74 24.23 9.88001 22.8C7.98001 21.34 7.01001 19.18 7.01001 16.37C7.01001 13.91 9.02001 11.92 11.48 11.94C13.9 11.96 15.92 13.96 15.95 16.38V16.92C15.95 19.16 16.98 21.29 18.78 22.62C19.96 23.49 21.4 24 22.96 24C26.4067 24 29.2852 21.5064 29.8852 18.2297C29.9606 17.8177 29.1011 17.6228 29.1011 17.1894L29.9977 16.2446L29.9903 14L29.2888 12.9657L29.9837 12L29.9771 10L29.9738 9L29.9705 8L29.96 4.81C29.96 3.26 28.7 2 27.14 2H17.58C17.23 2 16.95 2.28 16.96 2.63C16.96 5.6 19.36 8 22.33 8H24.63C24.8 8 24.94 8.14 24.94 8.31L24.98 16.96C24.98 18.06 24.1 18.95 23 18.98C21.87 19.01 20.95 18.07 20.95 16.94V16.2C20.8663 11.4299 17.16 7.51581 12.5 6.99005C12.1484 6.95038 11.8413 7.9098 11.48 7.9098C11.1659 7.9098 10.8057 6.94555 10.5 6.9759C9.48405 7.07677 8.5181 7.34117 7.62633 7.7419C7.33518 7.87274 7.54994 8.82711 7.27545 8.98606C6.97457 9.16029 6.1862 8.54184 5.90746 8.74746C5.11211 9.33418 4.41137 10.0436 3.83095 10.8469C3.63999 11.1112 3.93533 11.7373 3.77133 12.0209C3.60609 12.3066 2.98173 12.2498 2.84574 12.553C2.277 13.8209 1.97223 15.2323 2.00001 16.71C2.08001 20.94 3.75001 24.41 6.82001 26.78C9.57001 28.89 13.3 30 17.64 30H29C29.83 30 30.3 29.05 29.79 28.39Z" fill="#00D26A"/>
<path d="M23.5007 6.03125C23.2038 6.03125 22.9576 5.78506 22.9576 5.48819V4.53964C22.9576 4.24277 23.2038 3.99658 23.5007 3.99658C23.7976 3.99658 24.0437 4.24277 24.0437 4.53964V5.48819C24.0437 5.7923 23.7976 6.03125 23.5007 6.03125Z" fill="#1C1C1C"/>
<path d="M10.49 6.97993V7.99993C10.49 8.54993 10.94 8.99993 11.49 8.99993C12.04 8.99993 12.49 8.54993 12.49 7.99993V6.98993C12.14 6.94993 11.79 6.92993 11.44 6.92993C11.12 6.92993 10.8 6.94993 10.49 6.97993Z" fill="#FCD53F"/>
<path d="M29.97 8H28.95C28.4 8 27.95 8.45 27.95 9C27.95 9.55 28.4 10 28.95 10H29.98L29.97 8Z" fill="#FCD53F"/>
<path d="M29.98 12H28.95C28.4 12 27.95 12.45 27.95 13C27.95 13.55 28.4 14 28.95 14H29.99L29.98 12Z" fill="#FCD53F"/>
<path d="M28.95 18.24C28.4 18.24 27.95 17.79 27.95 17.24C27.95 16.69 28.4 16.24 28.95 16.24H30V16.96C30 17.4 29.96 17.83 29.88 18.24H28.95Z" fill="#FCD53F"/>
<path d="M8.15 8.61999C8.42 9.09999 8.26 9.70999 7.78 9.98999C7.3 10.27 6.69 10.11 6.41 9.62999L5.9 8.74999C6.44 8.35999 7.02 8.01999 7.63 7.73999L8.15 8.61999Z" fill="#FCD53F"/>
<path d="M4.69 11.3401L3.83 10.8401C3.44 11.3801 3.11 11.9601 2.83 12.5701L3.69 13.0701C4.17 13.3501 4.78 13.1801 5.06 12.7001C5.34 12.2301 5.17 11.6201 4.69 11.3401Z" fill="#FCD53F"/>
<path d="M3.06 15.4199C3.61 15.4199 4.06 15.8699 4.06 16.4199C4.06 16.9699 3.62 17.4199 3.06 17.4199H2.03C2.0266 17.3385 2.02206 17.2582 2.01753 17.1782C2.00873 17.0226 2 16.8685 2 16.7099C1.99 16.2799 2.01 15.8499 2.06 15.4199H3.06Z" fill="#FCD53F"/>
</svg>

<svg xmlns="http://www.w3.org/2000/svg" width="32" height="32" fill="none"><path fill="#F8312F" d="M19.58 6c-1.4 0-2.75-.61-3.64-1.7-.03-.04-.06-.07-.09-.11a.498.498 0 0 0-.71-.08c-.21.17-.24.49-.07.71.35.45.76.85 1.21 1.18h-.81c-.27 0-.5.2-.52.47-.01.29.22.53.51.53h6V6h-1.88Z"/><path fill="#00D26A" d="M29.79 28.39a8.706 8.706 0 0 0-6.91-3.41h-5.24c-3.22 0-5.9-.75-7.76-2.18-1.9-1.46-2.87-3.62-2.87-6.43 0-2.46 2.01-4.45 4.47-4.43 2.42.02 4.44 2.02 4.47 4.44v.54c0 2.24 1.03 4.37 2.83 5.7 1.18.87 2.62 1.38 4.18 1.38 3.447 0 6.325-2.494 6.925-5.77.076-.412-.784-.607-.784-1.04l.897-.945L29.99 14l-.701-1.034.695-.966-.007-2-.003-1-.003-1-.011-3.19C29.96 3.26 28.7 2 27.14 2h-9.56c-.35 0-.63.28-.62.63 0 2.97 2.4 5.37 5.37 5.37h2.3c.17 0 .31.14.31.31l.04 8.65c0 1.1-.88 1.99-1.98 2.02-1.13.03-2.05-.91-2.05-2.04v-.74c-.084-4.77-3.79-8.684-8.45-9.21-.352-.04-.659.92-1.02.92-.314 0-.674-.964-.98-.934a9.223 9.223 0 0 0-2.874.766c-.29.13-.076 1.085-.35 1.244-.301.174-1.09-.444-1.369-.239a9.583 9.583 0 0 0-2.076 2.1c-.191.264.104.89-.06 1.174-.165.286-.79.229-.925.532A9.692 9.692 0 0 0 2 16.71c.08 4.23 1.75 7.7 4.82 10.07C9.57 28.89 13.3 30 17.64 30H29c.83 0 1.3-.95.79-1.61Z"/><path fill="#1C1C1C" d="M23.5 6.031a.547.547 0 0 1-.542-.543V4.54c0-.297.246-.543.543-.543.297 0 .543.246.543.543v.948a.542.542 0 0 1-.543.543Z"/><path fill="#FCD53F" d="M10.49 6.98V8c0 .55.45 1 1 1s1-.45 1-1V6.99a9.24 9.24 0 0 0-2-.01ZM29.97 8h-1.02c-.55 0-1 .45-1 1s.45 1 1 1h1.03l-.01-2ZM29.98 12h-1.03c-.55 0-1 .45-1 1s.45 1 1 1h1.04l-.01-2ZM28.95 18.24c-.55 0-1-.45-1-1s.45-1 1-1H30v.72c0 .44-.04.87-.12 1.28h-.93ZM8.15 8.62c.27.48.11 1.09-.37 1.37a.998.998 0 0 1-1.37-.36l-.51-.88c.54-.39 1.12-.73 1.73-1.01l.52.88ZM4.69 11.34l-.86-.5c-.39.54-.72 1.12-1 1.73l.86.5c.48.28 1.09.11 1.37-.37a.992.992 0 0 0-.37-1.36ZM3.06 15.42c.55 0 1 .45 1 1s-.44 1-1 1H2.03a16.262 16.262 0 0 0-.012-.242c-.01-.155-.018-.31-.018-.468-.01-.43.01-.86.06-1.29h1Z"/></svg>
